mobile/apps/auth/assets/custom-icons/icons/mistral.svg

<svg xmlns="http://www.w3.org/2000/svg" viewBox="0 0 500 500"><path fill="#FFD800" d="M71.41 73h71.42v70.75H71.41V73Zm285.71 0h71.42v70.75h-71.42V73Z"/><path fill="#FFAF00" d="M71.41 143.75h142.84v70.75H71.41v-70.75Zm214.29 0h142.84v70.75H285.7v-70.75Z"/><path fill="#FF8205" d="M71.41 214.5h357.13v70.75H71.41V214.5Z"/><path fill="#FA500F" d="M71.41 285.27h71.42v70.75H71.41v-70.75Zm142.86 0h71.42v70.75h-71.42v-70.75Zm142.85 0h71.42v70.75h-71.42v-70.75Z"/><path fill="#E10500" d="M0 356.06h214.3v70.76H0v-70.76Zm285.7 0H500v70.76H285.7v-70.76Z"/></svg>

<svg width="500" height="500" viewBox="0 0 500 500" xmlns="http://www.w3.org/2000/svg">
  <path d="M71.41 73H142.83V143.75H71.41V73ZM357.12 73H428.54V143.75H357.12V73Z" fill="#FFD800"/>
  <path d="M71.41 143.75H214.25V214.5H71.41V143.75ZM285.7 143.75H428.54V214.5H285.7V143.75Z" fill="#FFAF00"/>
  <path d="M71.41 214.5H428.54V285.25H71.41V214.5Z" fill="#FF8205"/>
  <path d="M71.41 285.27H142.83V356.02H71.41V285.27ZM214.27 285.27H285.69V356.02H214.27V285.27ZM357.12 285.27H428.54V356.02H357.12V285.27Z" fill="#FA500F"/>
  <path d="M0 356.06H214.3V426.82H0V356.06ZM285.7 356.06H500V426.82H285.7V356.06Z" fill="#E10500"/>
</svg>
